X:1
T: Lady Louisa Gordon's Strathspey
C:
R:Strathspey
Q: 128
K:Em
M:4/4
L:1/16
|:B2|GE3 E3B, E3F G3A|FD3 D3A, F3G BAGF|GE3 E3B, E3F G3A|B3G BAGF GE3 E3B|
GE3 E3B, E3F G3A|FD3 D3A, F3G BAGF|GE3 AF3 BG3 cA3|Bb3 f3a g2e2 e2f2|
efgf e2B2 e3f g3a|fd3 d3A defg a2f2|efgf e2B2 e3f g3b|a3f bagf ge3 e3f|
efgf e2B2 e3f g3a|fd3 d3D F3G BAGF|EFG2 FGA2 GAB2 ABc2|B3e gfe^d ee3 e2:|

